assets/img/braze_icons/truck-02.svg

<svg fill="none" height="24" viewBox="0 0 24 24" width="24" xmlns="http://www.w3.org/2000/svg"><path clip-rule="evenodd" d="m5.16146 2h7.67704c.5272-.00002.982-.00003 1.3565.03057.3954.0323.7886.10362 1.167.29641.5645.28762 1.0234.74656 1.311 1.31105.1928.37838.2641.7716.2964 1.16694.0306.37458.0306.82935.0306 1.35651v.83871h1.3373l.051-.00009c.1899-.00051.429-.00115.6644.05535.2041.049.3991.1298.5781.23946.2063.12645.375.29599.5089.43064l.036.03616 2.0628 2.06275.0361.03602c.1347.13393.3042.30262.4307.50892.1096.179.1904.374.2394.5781.0565.2353.0559.4745.0554.6644l-.0001.051v2.7692c0 .2524.0001.4982-.0169.7063-.0187.2286-.0628.4983-.2011.7698-.1917.3763-.4977.6823-.874.874-.2714.1383-.5412.1824-.7698.201-.1438.0118-.3056.0154-.4752.0165.2161.4547.337.9634.337 1.5003 0 1.933-1.567 3.5-3.5 3.5s-3.5-1.567-3.5-3.5c0-.5368.1208-1.0454.3368-1.5h-4.67361c.21597.4546.33681.9632.33681 1.5 0 1.933-1.567 3.5-3.5 3.5s-3.5-1.567-3.5-3.5c0-.5704.13643-1.1089.37844-1.5846-.25065-.0455-.49856-.1192-.74041-.2424-.56449-.2876-1.02343-.7465-1.31105-1.311-.19279-.3784-.26411-.7716-.29641-1.167-.030601-.3745-.030586-.8293-.03057-1.3564v-6.67714c-.000016-.52713-.000031-.98192.03057-1.35649.0323-.39534.10362-.78856.29641-1.16694.28762-.56449.74656-1.02343 1.31105-1.31105.37838-.19279.7716-.26411 1.16694-.29641.37457-.0306.82936-.03059 1.35649-.03057zm12.31434 15.0002h.0484c.8173.0129 1.4758.6795 1.4758 1.4998 0 .8284-.6716 1.5-1.5 1.5s-1.5-.6716-1.5-1.5c0-.8203.6585-1.4869 1.4758-1.4998zm-.0127-2h-.4631v-6.00001h1.3373c.131 0 .1963.00024.2438.00241l.0036.00017.0027.00242c.0351.03204.0815.07811.1741.17074l2.0628 2.06277c.0926.0926.1387.139.1707.1741l.0024.0027.0002.0036c.0022.0475.0024.1128.0024.2438v2.7373c0 .2965-.0008.4588-.0103.5754l-.0011.0131-.0132.0012c-.1166.0095-.2789.0103-.5754.0103h-2.8631c-.0123-.0001-.0246-.0002-.0369-.0002s-.0246.0001-.0369.0002zm-9.4631 3.4998c0-.8276-.67027-1.4987-1.49758-1.5h-.00484c-.82731.0013-1.49758.6724-1.49758 1.5 0 .8284.67157 1.5 1.5 1.5s1.5-.6716 1.5-1.5z" fill="#801ed7" fill-rule="evenodd"/></svg>

<svg width="24" height="24" viewBox="0 0 24 24" fill="none" xmlns="http://www.w3.org/2000/svg">
<path fill-rule="evenodd" clip-rule="evenodd" d="M5.16146 2H12.8385C13.3657 1.99998 13.8205 1.99997 14.195 2.03057C14.5904 2.06287 14.9836 2.13419 15.362 2.32698C15.9265 2.6146 16.3854 3.07354 16.673 3.63803C16.8658 4.01641 16.9371 4.40963 16.9694 4.80497C17 5.17955 17 5.63432 17 6.16148V7.00019H18.3373L18.3883 7.0001C18.5782 6.99959 18.8173 6.99895 19.0527 7.05545C19.2568 7.10445 19.4518 7.18525 19.6308 7.29491C19.8371 7.42136 20.0058 7.5909 20.1397 7.72555L20.1757 7.76171L22.2385 9.82446L22.2746 9.86048C22.4093 9.99441 22.5788 10.1631 22.7053 10.3694C22.8149 10.5484 22.8957 10.7434 22.9447 10.9475C23.0012 11.1828 23.0006 11.422 23.0001 11.6119L23 11.6629L23 14.4321C23 14.6845 23.0001 14.9303 22.9831 15.1384C22.9644 15.367 22.9203 15.6367 22.782 15.9082C22.5903 16.2845 22.2843 16.5905 21.908 16.7822C21.6366 16.9205 21.3668 16.9646 21.1382 16.9832C20.9944 16.995 20.8326 16.9986 20.663 16.9997C20.8791 17.4544 21 17.9631 21 18.5C21 20.433 19.433 22 17.5 22C15.567 22 14 20.433 14 18.5C14 17.9632 14.1208 17.4546 14.3368 17H9.66319C9.87916 17.4546 10 17.9632 10 18.5C10 20.433 8.433 22 6.5 22C4.567 22 3 20.433 3 18.5C3 17.9296 3.13643 17.3911 3.37844 16.9154C3.12779 16.8699 2.87988 16.7962 2.63803 16.673C2.07354 16.3854 1.6146 15.9265 1.32698 15.362C1.13419 14.9836 1.06287 14.5904 1.03057 14.195C0.999969 13.8205 0.999984 13.3657 1 12.8386V6.16146C0.999984 5.63433 0.999969 5.17954 1.03057 4.80497C1.06287 4.40963 1.13419 4.01641 1.32698 3.63803C1.6146 3.07354 2.07354 2.6146 2.63803 2.32698C3.01641 2.13419 3.40963 2.06287 3.80497 2.03057C4.17954 1.99997 4.63433 1.99998 5.16146 2ZM17.4758 17.0002H17.5242C18.3415 17.0131 19 17.6797 19 18.5C19 19.3284 18.3284 20 17.5 20C16.6716 20 16 19.3284 16 18.5C16 17.6797 16.6585 17.0131 17.4758 17.0002ZM17.4631 15.0002H17V9.00019H18.3373C18.4683 9.00019 18.5336 9.00043 18.5811 9.0026L18.5847 9.00277L18.5874 9.00519C18.6225 9.03723 18.6689 9.0833 18.7615 9.17593L20.8243 11.2387C20.9169 11.3313 20.963 11.3777 20.995 11.4128L20.9974 11.4155L20.9976 11.4191C20.9998 11.4666 21 11.5319 21 11.6629V14.4002C21 14.6967 20.9992 14.859 20.9897 14.9756L20.9886 14.9887L20.9754 14.9899C20.8588 14.9994 20.6965 15.0002 20.4 15.0002H17.5369C17.5246 15.0001 17.5123 15 17.5 15C17.4877 15 17.4754 15.0001 17.4631 15.0002ZM8 18.5C8 17.6724 7.32973 17.0013 6.50242 17H6.49758C5.67027 17.0013 5 17.6724 5 18.5C5 19.3284 5.67157 20 6.5 20C7.32843 20 8 19.3284 8 18.5Z" fill="#801ED7"/>
</svg>
